app/img/_src/main/advantages-list/advantages-2.svg

<svg width="80" height="80" viewBox="0 0 80 80" fill="none" xmlns="http://www.w3.org/2000/svg">
<path d="M21.2189 30.9282H18.5664V33.5808H21.2189V30.9282Z" fill="#444444"/>
<path d="M34.4846 30.9282H31.832V33.5808H34.4846V30.9282Z" fill="#444444"/>
<path d="M78.4381 45.5304L73.2563 44.7903C73.0099 44.0657 72.7189 43.357 72.385 42.6683L75.5203 38.4879C75.7118 38.2325 75.8047 37.9166 75.7821 37.5982C75.7594 37.2797 75.6227 36.9802 75.3969 36.7545L69.7696 31.1271C69.5534 30.9125 69.2692 30.7798 68.9659 30.7518V17.9852C70.2068 16.9916 71.2086 15.732 71.8972 14.2993C72.5859 12.8667 72.9439 11.2975 72.9447 9.70793C72.9568 7.69794 72.3918 5.7267 71.3167 4.02836C70.2416 2.33002 68.7016 0.97595 66.8797 0.126988C66.6775 0.0315457 66.4546 -0.0112664 66.2315 0.00252859C66.0084 0.0163236 65.7924 0.0862782 65.6036 0.205894C65.4148 0.32551 65.2593 0.490907 65.1515 0.686721C65.0437 0.882535 64.9871 1.10241 64.9871 1.32593V8.75302L62.3346 9.63764L59.682 8.75302V1.32593C59.6811 1.10286 59.6239 0.883637 59.5157 0.688539C59.4076 0.49344 59.252 0.328773 59.0633 0.209774C58.8746 0.0907755 58.659 0.0212896 58.4363 0.00774631C58.2136 -0.00579699 57.9912 0.0370398 57.7894 0.132293C55.9683 0.980878 54.4289 2.33413 53.3539 4.03143C52.2788 5.72874 51.7133 7.69884 51.7244 9.70793C51.7252 11.2975 52.0832 12.8667 52.7719 14.2993C53.4605 15.732 54.4623 16.9916 55.7032 17.9852V26.9494H51.7244C51.4053 26.9493 51.0968 27.0644 50.8556 27.2734C50.6145 27.4824 50.4567 27.7714 50.4114 28.0873L49.5533 34.094L52.1793 34.4693L52.8743 29.6019H58.5322L59.2271 34.4693C59.2633 34.7215 59.3713 34.9579 59.5383 35.1503C59.7053 35.3427 59.9242 35.4829 60.1688 35.5542C61.2742 35.8736 62.3415 36.3125 63.3518 36.8632C63.5753 36.9858 63.8294 37.0413 64.0837 37.0232C64.3379 37.0051 64.5816 36.9141 64.7855 36.7611L68.7126 33.8168L72.7126 37.8168L69.7616 41.7439C69.6086 41.9478 69.5176 42.1914 69.4995 42.4457C69.4814 42.7 69.537 42.954 69.6595 43.1776C70.2102 44.1879 70.6491 45.2552 70.9685 46.3606C71.0398 46.6052 71.1801 46.824 71.3725 46.991C71.5648 47.158 71.8013 47.2661 72.0534 47.3022L76.9208 47.9972V53.6551L72.0534 54.35C71.8013 54.3862 71.5648 54.4943 71.3725 54.6612C71.1801 54.8282 71.0398 55.0471 70.9685 55.2917C70.6491 56.3971 70.2102 57.4644 69.6595 58.4747C69.537 58.6982 69.4814 58.9523 69.4995 59.2066C69.5176 59.4609 69.6086 59.7045 69.7616 59.9084L72.7059 63.8355L68.7059 67.8355L64.7815 64.8806C64.5776 64.7276 64.334 64.6366 64.0797 64.6185C63.8254 64.6003 63.5713 64.6559 63.3478 64.7785C62.3375 65.3291 61.2702 65.7681 60.1648 66.0875C59.9202 66.1588 59.7013 66.299 59.5344 66.4914C59.3674 66.6838 59.2593 66.9202 59.2231 67.1724L58.5322 72.0424H53.0507V66.4336C53.0497 65.0325 52.8488 63.6387 52.4539 62.2944C54.9801 63.0339 57.6786 62.9283 60.1393 61.9935C62.5999 61.0587 64.688 59.346 66.086 57.1157C67.4839 54.8854 68.1153 52.2595 67.8841 49.6375C67.6529 47.0155 66.5718 44.5407 64.8051 42.5894C63.0384 40.6382 60.6828 39.3172 58.0966 38.8275C55.5103 38.3377 52.8349 38.7059 50.4771 39.8761C48.1193 41.0463 46.2082 42.9545 45.0343 45.3104C43.8604 47.6664 43.488 50.3413 43.9737 52.9283C43.9419 52.915 43.9114 52.8991 43.8796 52.8872L33.1567 48.598V46.5595C34.929 45.6529 36.4987 44.3958 37.7708 42.8646H41.1143C42.1695 42.8646 43.1816 42.4454 43.9277 41.6992C44.6739 40.953 45.0931 39.941 45.0931 38.8858V35.9892C45.8662 35.7159 46.536 35.2104 47.0108 34.5419C47.4856 33.8733 47.7422 33.0744 47.7456 32.2544V28.2756C47.7422 27.4557 47.4856 26.6568 47.0108 25.9882C46.536 25.3197 45.8662 24.8142 45.0931 24.5409V22.9706C45.0931 18.0461 43.1369 13.3233 39.6547 9.84123C36.1726 6.3591 31.4499 4.40287 26.5254 4.40287C21.6009 4.40287 16.8781 6.3591 13.396 9.84123C9.9139 13.3233 7.95767 18.0461 7.95767 22.9706V24.5409C7.18458 24.8142 6.51481 25.3197 6.04 25.9882C5.5652 26.6568 5.30854 27.4557 5.30514 28.2756V32.2544C5.30514 33.3097 5.72433 34.3217 6.4705 35.0679C7.21667 35.814 8.22869 36.2332 9.28393 36.2332H11.9365C12.0213 36.2332 12.1036 36.22 12.1871 36.2147C12.5949 38.4136 13.5017 40.4897 14.8379 42.2831C16.174 44.0766 17.9037 45.5396 19.8941 46.5595V48.598L9.1712 52.8872C6.45842 53.9622 4.13247 55.8297 2.49657 58.2461C0.860661 60.6624 -0.00930704 63.5156 7.50935e-05 66.4336V78.6737C7.50935e-05 79.0255 0.139806 79.3628 0.388529 79.6115C0.637252 79.8603 0.974593 80 1.32634 80H51.7244C52.0762 80 52.4135 79.8603 52.6622 79.6115C52.911 79.3628 53.0507 79.0255 53.0507 78.6737V74.6949H59.682C60.0012 74.695 60.3096 74.5799 60.5508 74.3709C60.792 74.1619 60.9497 73.8729 60.995 73.557L61.7351 68.3753C62.4597 68.1288 63.1684 67.8378 63.8571 67.5039L68.0375 70.6392C68.2929 70.8307 68.6088 70.9237 68.9272 70.901C69.2456 70.8783 69.5452 70.7416 69.7709 70.5159L75.3983 64.8885C75.624 64.6628 75.7607 64.3632 75.7834 64.0448C75.8061 63.7264 75.7131 63.4105 75.5216 63.1551L72.3863 58.9747C72.7202 58.286 73.0112 57.5773 73.2577 56.8527L78.4394 56.1126C78.7548 56.0671 79.0433 55.9094 79.2521 55.6685C79.4608 55.4277 79.5758 55.1197 79.576 54.801V46.8434C79.576 46.5242 79.461 46.2158 79.252 45.9746C79.043 45.7334 78.754 45.5757 78.4381 45.5304ZM63.8491 34.1404C63.7868 34.1099 63.7165 34.09 63.6542 34.0608V17.6655H61.0083V28.1828L60.995 28.0873C60.9497 27.7714 60.792 27.4824 60.5508 27.2734C60.3096 27.0644 60.0012 26.9493 59.682 26.9494H58.3558V17.3207C58.3558 17.1068 58.304 16.896 58.205 16.7064C58.1059 16.5168 57.9624 16.354 57.7868 16.2318C56.8009 15.5454 55.9832 14.6448 55.395 13.5973C54.8068 12.5498 54.4634 11.3828 54.3906 10.1837C54.3177 8.98464 54.5173 7.78462 54.9743 6.67366C55.4313 5.56269 56.134 4.56962 57.0295 3.76891V9.70793C57.0294 9.9864 57.117 10.2578 57.2798 10.4837C57.4427 10.7096 57.6725 10.8786 57.9367 10.9666L61.9155 12.2928C62.1875 12.3834 62.4816 12.3834 62.7537 12.2928L66.7325 10.9666C66.9967 10.8786 67.2264 10.7096 67.3893 10.4837C67.5521 10.2578 67.6397 9.9864 67.6396 9.70793V3.76891C68.5359 4.5696 69.2392 5.56291 69.6966 6.67427C70.1541 7.78564 70.3539 8.98619 70.2811 10.1858C70.2082 11.3854 69.8645 12.553 69.2759 13.6008C68.6872 14.6486 67.8689 15.5495 66.8823 16.2358C66.7072 16.3576 66.5641 16.5198 66.4651 16.7086C66.366 16.8975 66.314 17.1074 66.3133 17.3207V32.2982L63.8491 34.1404ZM46.4194 50.8222C46.4048 48.7484 47.08 46.7286 48.3388 45.0806C49.5977 43.4326 51.3687 42.2498 53.3732 41.7184C55.3778 41.1869 57.5021 41.337 59.4121 42.145C61.322 42.9529 62.9092 44.3729 63.9239 46.1815C64.9385 47.9901 65.3231 50.0847 65.0172 52.1359C64.7112 54.187 63.732 56.0782 62.2337 57.5119C60.7353 58.9457 58.8028 59.8406 56.7402 60.056C54.6777 60.2713 52.602 59.7948 50.8398 58.7015C49.923 57.2328 48.7501 55.9404 47.3769 54.8858C46.746 53.6242 46.4181 52.2328 46.4194 50.8222ZM41.1143 40.212H39.5042C40.1505 38.9533 40.6086 37.6065 40.8636 36.2147C40.9472 36.2147 41.0294 36.2332 41.1143 36.2332H42.4406V38.8858C42.4406 39.2375 42.3008 39.5749 42.0521 39.8236C41.8034 40.0723 41.4661 40.212 41.1143 40.212ZM38.4618 25.6231C37.8444 25.6216 37.2357 25.4771 36.6834 25.201C36.1312 24.9249 35.6504 24.5246 35.2787 24.0316L32.8915 20.8486C32.7849 20.7065 32.6508 20.5872 32.4973 20.4979C32.3437 20.4086 32.1738 20.351 31.9976 20.3287C31.8213 20.307 31.6425 20.3206 31.4715 20.3687C31.3005 20.4167 31.1407 20.4982 31.0015 20.6085L26.5506 24.1642C25.3762 25.104 23.9181 25.6182 22.414 25.6231H14.589V24.2968C14.589 21.1311 15.8466 18.0951 18.0851 15.8565C20.3236 13.618 23.3597 12.3605 26.5254 12.3605C29.6911 12.3605 32.7272 13.618 34.9657 15.8565C37.2042 18.0951 38.4618 21.1311 38.4618 24.2968V25.6231ZM45.0931 32.2544C45.0931 32.6062 44.9534 32.9435 44.7046 33.1923C44.4559 33.441 44.1186 33.5807 43.7668 33.5807H41.1143V26.9494H43.7668C44.1186 26.9494 44.4559 27.0891 44.7046 27.3378C44.9534 27.5866 45.0931 27.9239 45.0931 28.2756V32.2544ZM26.5254 7.0554C30.745 7.05996 34.7904 8.7382 37.7741 11.7219C40.7578 14.7056 42.436 18.751 42.4406 22.9706V24.2968H41.1143C41.1143 20.4276 39.5773 16.7169 36.8413 13.9809C34.1054 11.245 30.3946 9.70793 26.5254 9.70793C22.6562 9.70793 18.9454 11.245 16.2095 13.9809C13.4735 16.7169 11.9365 20.4276 11.9365 24.2968H10.6102V22.9706C10.6148 18.751 12.293 14.7056 15.2767 11.7219C18.2604 8.7382 22.3058 7.05996 26.5254 7.0554ZM9.28393 33.5807C8.93219 33.5807 8.59485 33.441 8.34612 33.1923C8.0974 32.9435 7.95767 32.6062 7.95767 32.2544V28.2756C7.95767 27.9239 8.0974 27.5866 8.34612 27.3378C8.59485 27.0891 8.93219 26.9494 9.28393 26.9494H11.9365V33.5807H9.28393ZM14.589 33.5807V28.2756H22.414C24.5212 28.2728 26.5653 27.5556 28.2124 26.2412L31.5957 23.5342L33.1567 25.6231C33.7762 26.4448 34.5775 27.1119 35.4979 27.5721C36.4183 28.0323 37.4327 28.2731 38.4618 28.2756V33.5807C38.4639 35.9428 37.7611 38.2518 36.4432 40.212H26.5254V42.8646H34.0108C32.2593 44.2807 30.1426 45.1719 27.9056 45.4348C25.6686 45.6978 23.4029 45.3218 21.3708 44.3504C19.3386 43.379 17.6231 41.852 16.4229 39.946C15.2227 38.04 14.5869 35.8331 14.589 33.5807ZM26.5254 48.1696C27.8714 48.1663 29.2105 47.9762 30.5042 47.6046V49.4959C30.5042 50.5511 30.085 51.5632 29.3388 52.3093C28.5926 53.0555 27.5806 53.4747 26.5254 53.4747C25.4701 53.4747 24.4581 53.0555 23.712 52.3093C22.9658 51.5632 22.5466 50.5511 22.5466 49.4959V47.6046C23.8403 47.9762 25.1794 48.1663 26.5254 48.1696ZM50.3982 77.3475H42.4406V62.7585H39.788V77.3475H13.2627V62.7585H10.6102V77.3475H2.65261V66.4336C2.64488 64.0461 3.3567 61.7116 4.69524 59.7345C6.03379 57.7575 7.93695 56.2296 10.1566 55.35L20.1872 51.3381C20.5788 52.7171 21.4096 53.9309 22.5534 54.7951C23.6973 55.6593 25.0918 56.1269 26.5254 56.1269C27.959 56.1269 29.3535 55.6593 30.4973 54.7951C31.6412 53.9309 32.4719 52.7171 32.8636 51.3381L42.8942 55.35C45.1138 56.2296 47.017 57.7575 48.3555 59.7345C49.6941 61.7116 50.4059 64.0461 50.3982 66.4336V77.3475Z" fill="#444444"/>
<path d="M57.0275 32.2544H54.375V34.9069H57.0275V32.2544Z" fill="#444444"/>
<path d="M57.0275 66.7373H54.375V69.3898H57.0275V66.7373Z" fill="#444444"/>
<path d="M67.895 61.1379L66.0195 63.0137L67.895 64.8894L69.7706 63.0137L67.895 61.1379Z" fill="#444444"/>
<path d="M74.2697 49.4961H71.6172V52.1486H74.2697V49.4961Z" fill="#444444"/>
<path d="M67.8953 36.7558L66.0195 38.6313L67.8953 40.5068L69.771 38.6313L67.8953 36.7558Z" fill="#444444"/>
</svg>

<svg width="80" height="80" fill="none" xmlns="http://www.w3.org/2000/svg"><path d="M21.219 30.928h-2.653v2.653h2.653v-2.653zm13.266 0h-2.653v2.653h2.653v-2.653z" fill="#444"/><path d="M78.438 45.53l-5.182-.74a18.563 18.563 0 00-.871-2.122l3.135-4.18a1.326 1.326 0 00-.123-1.733l-5.627-5.628a1.312 1.312 0 00-.804-.375V17.985a10.61 10.61 0 003.979-8.277A10.5 10.5 0 0066.88.127a1.327 1.327 0 00-1.893 1.199v7.427l-2.652.885-2.653-.885V1.326A1.325 1.325 0 0057.789.132a10.5 10.5 0 00-6.065 9.576 10.61 10.61 0 003.98 8.277v8.964h-3.98a1.326 1.326 0 00-1.313 1.138l-.858 6.007 2.626.375.695-4.867h5.658l.695 4.867a1.326 1.326 0 00.942 1.085 15.8 15.8 0 013.183 1.31 1.326 1.326 0 001.434-.103l3.927-2.944 4 4-2.951 3.927a1.326 1.326 0 00-.103 1.434c.551 1.01.99 2.077 1.31 3.183a1.326 1.326 0 001.084.941l4.868.695v5.658l-4.868.695a1.327 1.327 0 00-1.084.942 15.835 15.835 0 01-1.31 3.183 1.327 1.327 0 00.103 1.433l2.944 3.928-4 4-3.925-2.955a1.326 1.326 0 00-1.433-.103c-1.01.551-2.078.99-3.183 1.31a1.326 1.326 0 00-.942 1.084l-.69 4.87H53.05v-5.608a14.723 14.723 0 00-.597-4.14 12.082 12.082 0 10-8.48-9.366c-.032-.013-.063-.029-.094-.04l-10.723-4.29V46.56a14.706 14.706 0 004.614-3.695h3.343a3.979 3.979 0 003.98-3.98V35.99a3.979 3.979 0 002.652-3.735v-3.978a3.98 3.98 0 00-2.653-3.735v-1.57a18.567 18.567 0 10-37.135 0v1.57a3.979 3.979 0 00-2.653 3.735v3.978a3.979 3.979 0 003.979 3.98h2.652c.085 0 .168-.014.251-.02a14.618 14.618 0 007.707 10.346v2.038L9.17 52.889A14.52 14.52 0 000 66.435v12.24A1.326 1.326 0 001.325 80h50.398a1.326 1.326 0 001.327-1.326v-3.98h6.631a1.326 1.326 0 001.313-1.137l.74-5.182a18.582 18.582 0 002.122-.871l4.18 3.135a1.326 1.326 0 001.734-.123l5.627-5.628a1.327 1.327 0 00.124-1.733l-3.136-4.18c.334-.689.625-1.398.872-2.122l5.181-.74a1.326 1.326 0 001.137-1.312v-7.958a1.327 1.327 0 00-1.138-1.313zM63.85 34.14c-.062-.03-.132-.05-.195-.08V17.666h-2.646v10.518l-.013-.096a1.326 1.326 0 00-1.313-1.138h-1.326v-9.628a1.327 1.327 0 00-.57-1.09A7.957 7.957 0 0157.03 3.77v5.939a1.326 1.326 0 00.908 1.259l3.979 1.326c.272.09.566.09.838 0l3.979-1.326a1.327 1.327 0 00.907-1.26V3.77a7.956 7.956 0 01-.758 12.467 1.326 1.326 0 00-.569 1.085v14.977L63.85 34.14zM46.42 50.822a9.35 9.35 0 114.42 7.88 14.477 14.477 0 00-3.462-3.816 9.067 9.067 0 01-.958-4.064zm-5.305-10.61h-1.61a14.454 14.454 0 001.36-3.997c.083 0 .165.018.25.018h1.327v2.653a1.326 1.326 0 01-1.327 1.326zm-2.652-14.589a3.999 3.999 0 01-3.183-1.591l-2.388-3.183a1.327 1.327 0 00-1.89-.24l-4.45 3.555a6.655 6.655 0 01-4.137 1.46H14.59v-1.327a11.937 11.937 0 0123.873 0v1.326zm6.631 6.631a1.326 1.326 0 01-1.326 1.327h-2.653v-6.632h2.653a1.326 1.326 0 011.326 1.327v3.978zM26.525 7.055a15.932 15.932 0 0115.916 15.916v1.326h-1.327a14.589 14.589 0 10-29.177 0H10.61V22.97A15.933 15.933 0 0126.525 7.055zM9.284 33.581a1.326 1.326 0 01-1.326-1.327v-3.978a1.326 1.326 0 011.326-1.327h2.652v6.632H9.285zm5.305 0v-5.305h7.825a9.316 9.316 0 005.798-2.035l3.384-2.707 1.56 2.09a6.665 6.665 0 005.306 2.652v5.305a11.86 11.86 0 01-2.019 6.631h-9.918v2.653h7.486a11.924 11.924 0 01-19.422-9.284zM26.525 48.17a14.541 14.541 0 003.98-.565v1.89a3.979 3.979 0 11-7.958 0v-1.89c1.293.371 2.632.561 3.978.565zm23.873 29.177h-7.957V62.76h-2.653v14.588H13.263V62.76H10.61v14.588H2.653V66.434a11.88 11.88 0 017.504-11.084l10.03-4.012a6.589 6.589 0 0012.677 0l10.03 4.012a11.881 11.881 0 017.504 11.084v10.913z" fill="#444"/><path d="M57.028 32.254h-2.653v2.653h2.653v-2.653zm0 34.483h-2.653v2.653h2.653v-2.653zm10.867-5.599l-1.876 1.876 1.876 1.875 1.876-1.875-1.876-1.876zm6.375-11.642h-2.653v2.653h2.653v-2.653zm-6.375-12.74L66.02 38.63l1.876 1.876 1.876-1.876-1.876-1.875z" fill="#444"/></svg>
